icon/mp/school.svg

<svg version="1.2" baseProfile="tiny" xmlns="http://www.w3.org/2000/svg" viewBox="0 0 50 50" overflow="inherit" height="1em" width="1em">
  <path d="M30 8v33h-24v-33h24m4-4h-32v42h32v-42zm-25 8h18v4h-18zm0 7h18v4h-18zm0 7h18v4h-18zm0 7h18v4h-18zm31-21h8v28h-8zm4.006-11c-2.194 0-4.006 1.765-4.006 3.937v4.063h8v-4.063c0-2.172-1.809-3.937-3.994-3.937zm-4.068 42l4.041 6.387 4.021-6.387z"/>
</svg>

<svg version="1.2" baseProfile="tiny" xmlns="http://www.w3.org/2000/svg" width="50" height="50" overflow="inherit"><path d="M30 8v33H6V8h24m4-4H2v42h32V4zM9 12h18v4H9zm0 7h18v4H9zm0 7h18v4H9zm0 7h18v4H9zm31-21h8v28h-8zm4.006-11C41.812 1 40 2.765 40 4.937V9h8V4.937C48 2.765 46.191 1 44.006 1zm-4.068 42 4.041 6.387L48 43z"/></svg>
